X:98
T:B098-  The Damask Rose, or Omnia Vincit Amor
Q:1/4=120
L:1/4
M:3/4
K:Em
B,2E|E2B|BAG|d3|deE|G2A/2G/2|F2E/2F/2|[1 E3:|[2 E2e/2f/2||\
gdd|d2d|B3/2A/2 B/2c/2|d3|EGG|A2A|B2B|e3|\
edB|e3|dBG|d2 ^c/2d/2|e2E|G2A/2G/2|GEE/2E/2|E3|]

